X: 40873
T: Triangle, The
R: reel
M: 4/4
K: Bmixolydian
|:BcBG B2 Bc|B2 gf eBBB|c2fg fccf|fegf ecce|
BcBG B2 Bc|B2 gf eBBB|c2fg fccf|ecBG BEEE:|
|:gfg=a be ~e2|gfed eB ~B2|c2fg fccf|fegf ecce|
[1 gfg=a be ~e2|gfed eB ~B2|c2fg fccf|ecBG BEEE:|
[2 BcBG B2 Bc|B2 gf eBBB|c2fg fccf|ecBG BEEE||

